X: 774
P: Longways for as many as will
M: C|
L: 1/8
K: G
V: 1
|: A2 |\
d4 g2c2 | B4 g2B2 | A2c2 B2G2 | AGFE D2A2 |\
V: 2 clef=bass middle=d
z2 |\
|: z2 |\
b6 a2 | g6 g2 | f4 g4 | d8 |\
g2G2 z4 | a2A2 z4 | g2c2 d2D2 | d6 :|

